!!!OTL: DAS SCHIFF STREICHT DURCH DIE WELLEN
!!!ARE: Europa, Mitteleuropa, Deutschland; Italia
!!!SCT: B0718
!!!YEM: Copyright 1995, estate of Helmut Schaffrath.
**kern
*ICvox
*Ivox
*M2/4
*k[f#]
*G:
{8d
=1
8g
8g
8a
8a
=2
8.b
16dd
8a
16a
16b
=3
4g
8r}
{8d
=4
8g
8g
8a
8a
=5
8.b
16dd
8a
16a
16b
=6
4g
8r}
{8d
=7
8cc
8cc
8cc
16ee
16dd
=8
8dd
16b
16b
16cc
16b}
{16a
16g
=9
16a
16a
16a
16a
16b
16a
16g
16f#
=10
8g
16g
16a
16b
16dd
16cc
16cc
=11
4g
8r}
{8d
=12
8cc
8cc
8cc
16ee
16dd
=13
8dd
16b
16b
16cc
16b}
{16a
16g
=14
16a
16a
16a
16a
16b
16a
16g
16f#
=15
8g
16g
16a
16b
16dd
16cc
16cc
=16
4g
8r}
==
!!!AGN: Heimat - Lied, Sehnsucht
!!!ONB: ESAC (Essen Associative Code) Database: BOEHME
!!!AMT: simple duple
!!!AIN: vox
!!!EED: Helmut Schaffrath
!!!EEV: 1.0
*-
